X:179
T:score258
L:1/8
Q:1/4=96
M:3/4
I:linebreak $
K:F
 c | c3 A AA | A2 F2 z F | G3 A (3BAG | F4 z c |$ c3 A AA | A2 F2 z F | G3 A (3BAG | F4 z2 |] %9
